X:1
T:North Island, 77.77.77
T:North Island, 77.77.77
T:Robert Lowry, 1884
T:Public Domain Courtesy of the Cyber Hymnal™
C:Robert Lowry, 1884
Z:Public Domain
Z:Courtesy of the Cyber Hymnal™
%%score ( 1 2 ) ( 3 4 )
L:1/8
Q:1/4=150
M:3/4
K:F
V:1 treble 
V:2 treble 
V:3 bass 
V:4 bass 
V:1
 [FA]4 [CG]2 | [CF]4 [CF]2 | ([EG]2 [FA]2) [GB]2 | [FA]6 | [Fc]4 [FA]2 | [Fc]4 [FA]2 | %6
 (F2 [EG]2) [FA]2 | [EG]6 | [FA]4 [EG]2 | F4 F2 | ([EG]2 [FA]2) [GB]2 | [FA]6 | [Fc]4 [FA]2 | %13
 (d2 B2) [DG]2 | [CF]4 [CE]2 | [CF]6 | [GB]4 [FA]2 | ([EG]2 [FA]2) [GB]2 | [Ac]4 [GB]2 | [FA]6 | %20
 (B2 c2) [Fd]2 | [Fc]4 [FA]2 | ([EG]2 F2) [CG]2 | [CF]6 |] %24
V:2
 x6 | x6 | x6 | x6 | x6 | x6 | F2 x4 | x6 | x6 | F4 F2 | x6 | x6 | x6 | F4 x2 | x6 | x6 | x6 | x6 | %18
 x6 | x6 | F4 x2 | x6 | x2 F2 x2 | x6 |] %24
V:3
 [F,C]4 [F,B,]2 | [F,A,]4 [F,A,]2 | [C,C]4 [C,C]2 | [F,C]6 | [F,A,]4 [F,C]2 | [F,A,]4 [F,C]2 | %6
 C4 [F,C]2 | [C,C]6 | [F,C]4 [C,B,]2 | [D,A,]4 [D,A,]2 | [C,C]4 [C,C]2 | [F,C]6 | [F,A,]4 [F,C]2 | %13
 (B,2 D2) [B,,B,]2 | [C,A,]4 [C,G,]2 | [F,A,]6 | [C,C]4 [C,C]2 | [C,C]4 [C,C]2 | [C,C]4 [C,C]2 | %19
 [F,C]6 | ([D,B,]2 [C,A,]2) [B,,B,]2 | [F,A,]4 [F,C]2 | (B,2 A,2) [C,B,]2 | [F,A,]6 |] %24
V:4
 x6 | x6 | x6 | x6 | x6 | x6 | (A,2 G,2) x2 | x6 | x6 | x6 | x6 | x6 | x6 | B,,4 x2 | x6 | x6 | %16
 x6 | x6 | x6 | x6 | x6 | x6 | C,4 x2 | x6 |] %24

